X:1
T:When the Mists Have Rolled Away
T: Ira David Sankey
T:When the Mists Have Rolled Away
T:Public Domain
T:Public Domain
T:Public Domain
T:Public Domain
C:Ira David Sankey
Z:Public Domain
%%score ( 1 2 ) 3
L:1/8
M:4/4
K:Db
V:1 treble 
V:2 treble 
V:3 bass 
V:1
 [DF]>[EG] | [FA]>[FA] [FA]>[FA] [FA]>[Fd] [Ac]>[GB] | [FA]>[FA] [GA]>[GA] [FA]2 [FA]>[F=A] | %3
w: 1.~When the|mists have rolled in splen- dor From the|beau- ty of the hills, And the|
w: 2.~Oft we|tread the path be- fore us with a|wear- y, hard- ened heart. Oft we|
w: 3.~We shall|come with joy and glad- ness, We shall|ga- ther round the throne. Face to|
 [GB]>[GB] [GB]>[GB] [GB]>[GB] [GB]>[GB] | [=GB]>[GB] [Ac]>[Gd] [Ac]2 [_GB]>[GA] | %5
w: sun- light falls in glad- ness On the|riv- ers and the rills, We re-|
w: toil a- mid the sha- dows, and our|fields are far a- part. But the|
w: face with those that love us We shall|know as we are known. And the|
 [Fd]>[Fd] [Fd]>[Fd] [Fd]>[DF] [EG]>[FA] | [GB]>[GB] [GB]>[GB] [=Ge]2 [_Ge]>[Gd] | %7
w: call our Fa- ther’s prom- ise In the|rainb- ow of the spray: We shall|
w: Sav- ior’s “Come, ye bless- èd” all our|la- bor will re- pay When we|
w: song of our re- demp- tion Shall re-|sound through end- less day When the|
 [Gc]>[Gc] [Gc]>[Gc] [Gc]<[GA] [GB]>[Gc] | [Fd]>[Fd] [Gd]>[Ed] [Fd]4 ||"^Refrain" [DF]>[EG] | %10
w: know each o- ther bet- ter When the|mists have rolled a- way.||
w: ga- ther in the morn- ing where the|mists have rolled a- way.|We shall|
w: sha- dows have de- part- ed And the|mists have rolled a- way.||
 [FA]4- [FA]>[Fd] [Ac]>[GB] | (FF G>G _A2) [FA]>[FA] | [GB]4- [GB]>[GB] [=Ac]>[Bd] | %13
w: |||
w: know, * as we are|known, * * * * Nev- er|walk * a- * lone,|
w: |||
 [Ac]4- [Ac]2 [GB]>[Gc] | [Ad]>[Ad] [Ad]>[Ad] [Fd]>[DF] [EG]>[FA] | %15
w: ||
w: In * the dawn-|ing of the morn- ing Of that bright|
w: ||
 [GB]>[GB] [GB]>[GB] [=Ge]2 [_Ge]>[Gd] | [Gc]>[Gc] [Gc]>[Gc] [Gc]<[GA] [GB]>[Gc] | %17
w: ||
w: and hap- py day, We shall know|each o- ther bet- ter, When the mists|
w: ||
 [Fd]>[Fd] [Gd]>[Ed] [Fd]2 |] %18
w: |
w: have rolled a- way. *|
w: |
V:2
 x2 | x8 | x8 | x8 | x8 | x8 | x8 | x8 | x8 || x2 | x8 | =A4- F2 x2 | x8 | x8 | x8 | x8 | x8 | %17
w: |||||||||||||||||
w: |||||||||||more to||||||
 x6 |] %18
w: |
w: |
V:3
 [D,A,]>[D,A,] | [D,A,]>[D,A,] [D,A,]>[D,A,] [D,A,]>[D,A,] [D,A,]>[D,A,] | %2
 [D,D]>[D,D] [E,D]>[A,,C] [D,D]2 [F,A,]>[D,D] | [G,D]>[G,D] [G,D]>[G,D] [G,D]>[G,D] [G,D]>[G,D] | %4
 [E,D]>[E,D] [E,C]>[E,E] [A,E]2 [A,C]>[A,C] | %5
 [D,D]>[D,A,] [D,A,]>[D,A,] [D,A,]>[D,A,] [D,D]>[D,C] | %6
 [G,D]>[G,D] [G,D]>[G,B,] [E,B,]2 [A,C]>[A,D] | [A,E]>[A,E] [A,E]>[A,E] [A,E]<[A,C] [A,D]>[A,E] | %8
 [D,D]>[D,_C] [D,B,]>[D,__B,] [D,A,]4 || z2 | z2 [D,A,]>[D,A,] [D,A,]2 z2 | %11
 z ([D,D] [E,C]>[A,,C]) [B,,D]2 z2 | z2 ([G,D]>[G,D] [E,D]>)[E,D] [E,C]>[E,E] | %13
 ([A,E]>[A,E] [A,E]>[A,E] [A,C]2) [A,C]>[A,E] | [F,D]>[F,D] [F,D]>[F,D] [D,D]>[D,A,] [D,A,]>[D,D] | %15
 [G,D]>[G,D] [G,D]>[G,B,] [E,B,]2 [A,C]>[A,D] | [A,E]>[A,E] [A,E]>[A,E] [A,E]<[A,C] [A,D]>[A,E] | %17
 [D,D]>[D,_C] [D,B,]>[D,__B,] [D,A,]2 |] %18

